X: 640
T:?? Reel
R:reel
M:C
L:1/8
N:Posted to the woodenflute mailing list April 2003
Z:Julien Coupey
K:A
C3D EFAB|cfec BAFA|B~F3 dcBA|GBAF EFED|C3D EFAB|cfec BAFA|
B~F3 dcBA|1 EAGB AFED:|2 EAGB ABcd|| ~e3f edcd|eaag aece|f~B3 dcBA |
|1 GBAF E2cd|~e3f edcd|eaag aece|f~B3 dcBA|EAGB ABcd:|
|2 GBAF EFED|C3D EFAB|cfec BAFA|B~F3 dcBA|EAGB AFED|
<end>
<start>
